X:261
T:Tienne de la Barret
R:Scottiche
A:Massif Central
O:France
M:2/4
L:1/16
Q:1/4=80
K:G
DEFD G4|AGFB A4|DEFD G2AB|AGFA G4:|
|:dedc A2AB|cdcB A4|G2FG A2AB|1cABc d4:|2cAGF G4||
